src/assets/discord.svg

<svg width="24" height="24" viewBox="0 0 24 24" fill="none" xmlns="http://www.w3.org/2000/svg">
<path d="M9.87605 4.98866C9.70165 4.50386 9.52565 4.01506 9.52245 4.00866C9.43845 3.82066 9.24405 3.70226 9.03925 3.72306C8.90965 3.73346 5.84325 3.99746 3.87845 5.57746C2.85125 6.52626 0.800049 12.0735 0.800049 16.8695C0.800049 16.9543 0.821649 17.0367 0.864049 17.1103C2.28085 19.5983 6.14325 20.2495 7.02325 20.2775C7.02885 20.2783 7.03365 20.2783 7.03845 20.2783C7.19365 20.2783 7.33925 20.2039 7.43205 20.0783L8.38405 18.7887C6.81125 18.5495 6.52725 18.2375 6.46085 18.1887C6.10565 17.9271 5.84325 17.5607 6.16165 17.0983C6.40645 16.7391 6.92005 16.6207 7.31365 16.8231C7.71685 17.0111 8.79605 17.6159 12 17.5999C15.1816 17.5903 16.5784 16.9239 16.5984 16.9095C17.1328 16.6687 17.5496 16.7679 17.8096 17.1247C18.1192 17.6103 17.8984 17.9391 17.5448 18.1999C17.4784 18.2487 17.3176 18.3855 15.628 18.7855L16.568 20.0775C16.66 20.2039 16.8064 20.2775 16.9616 20.2775C16.9672 20.2775 16.972 20.2775 16.9769 20.2767C17.8576 20.2487 21.72 19.5975 23.136 17.1095C23.1784 17.0359 23.2 16.9535 23.2 16.8687C23.2 12.0735 21.1488 6.52626 20.0961 5.55666C18.1568 3.99826 15.0904 3.73426 14.9608 3.72306C14.756 3.70546 14.5616 3.82146 14.4776 4.00866C14.4744 4.01506 14.3032 4.51186 14.1376 4.99106C14.1376 4.99106 12.8328 4.79986 12 4.79986C11.1672 4.79986 9.87605 4.98866 9.87605 4.98866ZM8.80005 15.1999C7.91605 15.1999 7.20005 14.1335 7.20005 12.8167C7.20005 11.4999 7.91605 10.4335 8.80005 10.4335C9.68725 10.3015 10.3808 11.4999 10.4 12.8167C10.4 14.1335 9.68405 15.1999 8.80005 15.1999ZM15.2 15.1999C14.316 15.1999 13.6 14.1263 13.6 12.8023C13.6 11.4783 14.316 10.4047 15.2 10.4047C16.084 10.4047 16.8 11.4783 16.8 12.8023C16.8 14.1263 16.084 15.1999 15.2 15.1999Z" fill="#737373"/>
</svg>

<svg fill="none" height="24" viewBox="0 0 24 24" width="24" xmlns="http://www.w3.org/2000/svg"><path d="m9.87605 4.98866c-.1744-.4848-.3504-.9736-.3536-.98-.084-.188-.2784-.3064-.4832-.2856-.1296.0104-3.196.2744-5.1608 1.8544-1.0272.9488-3.078401 6.49604-3.078401 11.29204 0 .0848.0216.1672.064.2408 1.416801 2.488 5.279201 3.1392 6.159201 3.1672.0056.0008.0104.0008.0152.0008.1552 0 .3008-.0744.3936-.2l.952-1.2896c-1.5728-.2392-1.8568-.5512-1.9232-.6-.3552-.2616-.6176-.628-.2992-1.0904.2448-.3592.7584-.4776 1.152-.2752.4032.188 1.4824.7928 4.68635.7768 3.1816-.0096 4.5784-.676 4.5984-.6904.5344-.2408.9512-.1416 1.2112.2152.3096.4856.0888.8144-.2648 1.0752-.0664.0488-.2272.1856-1.9168.5856l.94 1.292c.092.1264.2384.2.3936.2.0056 0 .0104 0 .0153-.0008.8807-.028 4.7431-.6792 6.1591-3.1672.0424-.0736.064-.156.064-.2408 0-4.7952-2.0512-10.34244-3.1039-11.31204-1.9393-1.5584-5.0057-1.8224-5.1353-1.8336-.2048-.0176-.3992.0984-.4832.2856-.0032.0064-.1744.5032-.34.9824 0 0-1.3048-.1912-2.1376-.1912s-2.12395.1888-2.12395.1888zm-1.076 10.21124c-.884 0-1.6-1.0664-1.6-2.3832s.716-2.3832 1.6-2.3832c.8872-.132 1.58075 1.0664 1.59995 2.3832 0 1.3168-.71595 2.3832-1.59995 2.3832zm6.39995 0c-.884 0-1.6-1.0736-1.6-2.3976s.716-2.3976 1.6-2.3976 1.6 1.0736 1.6 2.3976-.716 2.3976-1.6 2.3976z" fill="#737373"/></svg>
